X:63
T:St. Andrews Breakdown
S:Andy Hornby
R:Reel
O:England
N:1990
M:4/4
C:Andy Hornby
A:Lancaster
K:G
G2ge d2Bd | z^c de dBAB | G2 ge d2 BA- | \
AGAB cBAB | G2ge d2Bd | z^c de dBGB |*
cBcd edef | gfge dcBA :: G2dG G2dG | \
G2dG edcB | A2DA A2DA |*
cBAG FGAB | G2dG G2dG | \
G2dG edcB | cBAB cBcd | edef gedB :|**
W:Copyright Andy Hornby
